X:2108
L:1/8
M:2/4
K:D
 A, |"D" DF FF |"D" | D3 A |"A7" AG"D/A" GF |"A" FE ED |"A" CE EE |"A" E3 A |"D" FF"A" EE | 
"D" D2 z F |"D" A2-"A" AG |"D" F2 z A |"D" dA AF |"A" | FE ED |"A" CE EE |"A" E3 A |"D" FF"A" EE | 
"D" D2 z |]

